X: 360
T: A Smile In The Dark
R: jig
M: 6/8
K: Gmajor
|:BGG cBA|EFG ABA|ded cAB|GBA FED|
~B3 AFD|EFG ABA|ded cAF|1 AGG G2A:|2 AGG G2D||
|:GBd ~g3|fdB cde|fdf agf|gBd e2f|
gfe dcB|ABG EFG|ABA FDF|1 G3 G2D:|2 G3 G2A||

